X: 32820
T: Popcorn, The
R: reel
M: 4/4
K: Emajor
|:B2GB EBGB|EBGB cAFA|B2GB EBGB|Bcef gfec:|
Bege bege|bege affc|Bege bege|Bcef gfec|
Bege bege|bege affc|gbgf e2ec|Bcef gfec|

